img/icon10.svg

<svg width="111" height="63" viewBox="0 0 111 63" fill="none" xmlns="http://www.w3.org/2000/svg">
<rect width="111" height="63" fill="white"/>
<path d="M12.4803 29.136H18.4803V29.016C18.4803 27.656 18.1203 26.608 17.4003 25.872C16.6803 25.136 15.6883 24.768 14.4243 24.768C13.3843 24.768 12.5923 24.992 12.0483 25.44C11.5043 25.872 11.0803 26.456 10.7763 27.192L8.13635 25.68C8.79235 24.48 9.60835 23.56 10.5843 22.92C11.5763 22.28 12.8563 21.96 14.4243 21.96C16.7603 21.96 18.5763 22.68 19.8723 24.12C21.1843 25.544 21.8403 27.672 21.8403 30.504C21.8403 33.336 21.1843 35.512 19.8723 37.032C18.5763 38.536 16.7603 39.288 14.4243 39.288C12.7923 39.288 11.4643 38.952 10.4403 38.28C9.41635 37.608 8.61635 36.672 8.04035 35.472L10.6083 33.888C10.8963 34.656 11.3363 35.28 11.9283 35.76C12.5363 36.24 13.3683 36.48 14.4243 36.48C15.6883 36.48 16.6803 36.104 17.4003 35.352C18.1203 34.6 18.4803 33.536 18.4803 32.16V31.92H12.4803V29.136ZM24.8687 26.472H27.9407V31.392H29.9567L31.8527 28.104C32.2047 27.496 32.5647 27.072 32.9327 26.832C33.3007 26.592 33.7887 26.472 34.3967 26.472H35.7647V28.92H34.4207L33.1007 31.224C32.8767 31.64 32.6607 31.936 32.4527 32.112C32.2447 32.272 31.9967 32.392 31.7087 32.472V32.592C31.9967 32.656 32.2527 32.768 32.4767 32.928C32.7167 33.088 32.9487 33.368 33.1727 33.768L34.7327 36.552H36.0527V39H34.4927C33.8847 39 33.3807 38.872 32.9807 38.616C32.5967 38.36 32.2287 37.92 31.8767 37.296L29.9567 33.816H27.9407V39H24.8687V26.472ZM43.4064 39.288C42.4784 39.288 41.6544 39.136 40.9344 38.832C40.2144 38.528 39.6064 38.088 39.1104 37.512C38.6304 36.936 38.2624 36.248 38.0064 35.448C37.7504 34.632 37.6224 33.72 37.6224 32.712C37.6224 31.704 37.7504 30.8 38.0064 30C38.2624 29.2 38.6304 28.52 39.1104 27.96C39.6064 27.384 40.2144 26.944 40.9344 26.64C41.6544 26.336 42.4784 26.184 43.4064 26.184C44.6704 26.184 45.7104 26.464 46.5264 27.024C47.3584 27.584 47.9584 28.36 48.3264 29.352L45.8064 30.48C45.6624 29.952 45.3904 29.52 44.9904 29.184C44.6064 28.832 44.0784 28.656 43.4064 28.656C42.5424 28.656 41.8944 28.928 41.4624 29.472C41.0464 30.016 40.8384 30.728 40.8384 31.608V33.888C40.8384 34.768 41.0464 35.48 41.4624 36.024C41.8944 36.552 42.5424 36.816 43.4064 36.816C44.1424 36.816 44.7104 36.632 45.1104 36.264C45.5104 35.88 45.8224 35.408 46.0464 34.848L48.3984 35.976C47.9824 37.08 47.3504 37.912 46.5024 38.472C45.6544 39.016 44.6224 39.288 43.4064 39.288ZM50.7671 26.472H61.3751V39H58.3031V28.92H53.8391V39H50.7671V26.472ZM69.8913 39.288C68.9953 39.288 68.1873 39.136 67.4673 38.832C66.7633 38.528 66.1553 38.088 65.6433 37.512C65.1473 36.936 64.7633 36.248 64.4913 35.448C64.2193 34.632 64.0833 33.72 64.0833 32.712C64.0833 31.704 64.2193 30.8 64.4913 30C64.7633 29.2 65.1473 28.52 65.6433 27.96C66.1553 27.384 66.7633 26.944 67.4673 26.64C68.1873 26.336 68.9953 26.184 69.8913 26.184C70.7873 26.184 71.5953 26.336 72.3153 26.64C73.0353 26.944 73.6433 27.384 74.1393 27.96C74.6513 28.52 75.0433 29.2 75.3153 30C75.5873 30.8 75.7233 31.704 75.7233 32.712C75.7233 33.72 75.5873 34.632 75.3153 35.448C75.0433 36.248 74.6513 36.936 74.1393 37.512C73.6433 38.088 73.0353 38.528 72.3153 38.832C71.5953 39.136 70.7873 39.288 69.8913 39.288ZM69.8913 36.816C70.7073 36.816 71.3473 36.568 71.8113 36.072C72.2753 35.576 72.5073 34.848 72.5073 33.888V31.56C72.5073 30.616 72.2753 29.896 71.8113 29.4C71.3473 28.904 70.7073 28.656 69.8913 28.656C69.0913 28.656 68.4593 28.904 67.9953 29.4C67.5313 29.896 67.2993 30.616 67.2993 31.56V33.888C67.2993 34.848 67.5313 35.576 67.9953 36.072C68.4593 36.568 69.0913 36.816 69.8913 36.816ZM78.4468 26.472H81.5188V28.536H81.6148C81.8388 27.816 82.2628 27.248 82.8868 26.832C83.5108 26.4 84.2388 26.184 85.0708 26.184C86.6708 26.184 87.8868 26.752 88.7188 27.888C89.5668 29.008 89.9908 30.616 89.9908 32.712C89.9908 34.824 89.5668 36.448 88.7188 37.584C87.8868 38.72 86.6708 39.288 85.0708 39.288C84.2388 39.288 83.5108 39.072 82.8868 38.64C82.2788 38.208 81.8548 37.632 81.6148 36.912H81.5188V43.8H78.4468V26.472ZM84.0868 36.744C84.8868 36.744 85.5348 36.48 86.0308 35.952C86.5268 35.424 86.7748 34.712 86.7748 33.816V31.656C86.7748 30.76 86.5268 30.048 86.0308 29.52C85.5348 28.976 84.8868 28.704 84.0868 28.704C83.3508 28.704 82.7348 28.888 82.2388 29.256C81.7588 29.624 81.5188 30.112 81.5188 30.72V34.704C81.5188 35.36 81.7588 35.864 82.2388 36.216C82.7348 36.568 83.3508 36.744 84.0868 36.744ZM95.2168 28.92H91.4008V26.472H102.105V28.92H98.2888V39H95.2168V28.92Z" fill="#000105"/>
<rect x="1" y="1" width="108.864" height="61" stroke="black" stroke-width="2"/>
</svg>

<svg width="111" height="63" fill="none" xmlns="http://www.w3.org/2000/svg"><path fill="#fff" d="M0 0h111v63H0z"/><path d="M12.48 29.136h6v-.12c0-1.36-.36-2.408-1.08-3.144-.72-.736-1.712-1.104-2.976-1.104-1.04 0-1.832.224-2.376.672-.544.432-.968 1.016-1.272 1.752l-2.64-1.512c.656-1.2 1.472-2.12 2.448-2.76.992-.64 2.272-.96 3.84-.96 2.336 0 4.152.72 5.448 2.16 1.312 1.424 1.968 3.552 1.968 6.384 0 2.832-.656 5.008-1.968 6.528-1.296 1.504-3.112 2.256-5.448 2.256-1.632 0-2.96-.336-3.984-1.008-1.024-.672-1.824-1.608-2.4-2.808l2.568-1.584c.288.768.728 1.392 1.32 1.872.608.48 1.44.72 2.496.72 1.264 0 2.256-.376 2.976-1.128.72-.752 1.08-1.816 1.08-3.192v-.24h-6v-2.784zm12.389-2.664h3.072v4.92h2.016l1.896-3.288c.352-.608.712-1.032 1.08-1.272.368-.24.856-.36 1.464-.36h1.368v2.448H34.42l-1.32 2.304c-.224.416-.44.712-.648.888-.208.16-.456.28-.744.36v.12c.288.064.544.176.768.336.24.16.472.44.696.84l1.56 2.784h1.32V39h-1.56c-.608 0-1.112-.128-1.512-.384-.384-.256-.752-.696-1.104-1.32l-1.92-3.48H27.94V39h-3.072V26.472zm18.537 12.816c-.928 0-1.752-.152-2.472-.456a4.87 4.87 0 01-1.824-1.32c-.48-.576-.848-1.264-1.104-2.064-.256-.816-.384-1.728-.384-2.736 0-1.008.128-1.912.384-2.712.256-.8.624-1.48 1.104-2.04a4.87 4.87 0 011.824-1.32c.72-.304 1.544-.456 2.472-.456 1.264 0 2.304.28 3.12.84.832.56 1.432 1.336 1.8 2.328l-2.52 1.128a2.51 2.51 0 00-.816-1.296c-.384-.352-.912-.528-1.584-.528-.864 0-1.512.272-1.944.816-.416.544-.624 1.256-.624 2.136v2.28c0 .88.208 1.592.624 2.136.432.528 1.08.792 1.944.792.736 0 1.304-.184 1.704-.552.4-.384.712-.856.936-1.416l2.352 1.128c-.416 1.104-1.048 1.936-1.896 2.496-.848.544-1.88.816-3.096.816zm7.361-12.816h10.608V39h-3.072V28.92H53.84V39h-3.072V26.472zm19.124 12.816c-.896 0-1.704-.152-2.424-.456a5.138 5.138 0 01-1.824-1.32c-.496-.576-.88-1.264-1.152-2.064-.272-.816-.408-1.728-.408-2.736 0-1.008.136-1.912.408-2.712.272-.8.656-1.48 1.152-2.04a5.138 5.138 0 011.824-1.32c.72-.304 1.528-.456 2.424-.456.896 0 1.704.152 2.424.456a4.87 4.87 0 011.824 1.32c.512.56.904 1.24 1.176 2.04.272.8.408 1.704.408 2.712 0 1.008-.136 1.92-.408 2.736a5.945 5.945 0 01-1.176 2.064 4.87 4.87 0 01-1.824 1.32c-.72.304-1.528.456-2.424.456zm0-2.472c.816 0 1.456-.248 1.92-.744.464-.496.696-1.224.696-2.184V31.56c0-.944-.232-1.664-.696-2.16-.464-.496-1.104-.744-1.92-.744-.8 0-1.432.248-1.896.744-.464.496-.696 1.216-.696 2.16v2.328c0 .96.232 1.688.696 2.184.464.496 1.096.744 1.896.744zm8.556-10.344h3.072v2.064h.096a3.094 3.094 0 011.272-1.704c.624-.432 1.352-.648 2.184-.648 1.6 0 2.816.568 3.648 1.704.848 1.12 1.272 2.728 1.272 4.824 0 2.112-.424 3.736-1.272 4.872-.832 1.136-2.048 1.704-3.648 1.704-.832 0-1.56-.216-2.184-.648a3.373 3.373 0 01-1.272-1.728h-.096V43.8h-3.072V26.472zm5.64 10.272c.8 0 1.448-.264 1.944-.792s.744-1.24.744-2.136v-2.16c0-.896-.248-1.608-.744-2.136-.496-.544-1.144-.816-1.944-.816-.736 0-1.352.184-1.848.552-.48.368-.72.856-.72 1.464v3.984c0 .656.24 1.16.72 1.512.496.352 1.112.528 1.848.528zm11.13-7.824H91.4v-2.448h10.704v2.448h-3.816V39h-3.072V28.92z" fill="#000105"/><path stroke="#000" stroke-width="2" d="M1 1h108.864v61H1z"/></svg>
